svg/color/hft.svg

<?xml version="1.0" encoding="UTF-8" ?>
<!DOCTYPE svg PUBLIC "-//W3C//DTD SVG 1.1//EN" "http://www.w3.org/Graphics/SVG/1.1/DTD/svg11.dtd">
<svg width="250pt" height="250pt" viewBox="0 0 250 250" version="1.1" xmlns="http://www.w3.org/2000/svg">
<g id="#ffffffff">
<path fill="#ffffff" opacity="1.00" d=" M 0.00 0.00 L 117.58 0.00 C 103.02 1.11 88.67 4.61 75.26 10.37 C 52.34 20.30 32.57 37.31 19.30 58.47 C 7.99 76.12 1.64 96.73 0.00 117.57 L 0.00 0.00 Z" />
<path fill="#ffffff" opacity="1.00" d=" M 132.43 0.00 L 250.00 0.00 L 250.00 117.58 C 248.36 96.74 242.01 76.12 230.70 58.47 C 218.26 38.56 200.00 22.47 178.90 12.23 C 164.31 5.38 148.50 1.22 132.43 0.00 Z" />
<path fill="#ffffff" opacity="1.00" d=" M 113.74 72.38 C 115.13 71.99 116.52 71.57 117.98 71.63 C 145.10 71.70 172.23 71.61 199.35 71.67 C 199.52 78.89 199.52 86.11 199.35 93.33 C 178.31 93.40 157.28 93.28 136.24 93.38 C 136.08 100.15 136.06 106.92 136.28 113.68 C 132.69 115.11 128.75 114.25 125.00 114.46 C 121.25 114.25 117.31 115.10 113.72 113.68 C 113.96 99.92 113.92 86.15 113.74 72.38 Z" />
<path fill="#ffffff" opacity="1.00" d=" M 50.49 72.30 C 54.92 71.25 59.49 71.76 64.00 71.63 C 66.81 71.54 69.62 71.72 72.35 72.46 C 72.10 86.40 72.32 100.34 72.24 114.28 C 65.04 114.63 57.82 114.44 50.61 114.39 C 50.43 100.36 50.66 86.33 50.49 72.30 Z" />
<path fill="#ffffff" opacity="1.00" d=" M 156.52 115.05 C 158.30 114.56 160.14 114.37 161.99 114.42 C 174.23 114.52 186.48 114.39 198.72 114.49 C 198.94 121.49 198.94 128.50 198.73 135.51 C 191.97 135.55 185.21 135.64 178.46 135.43 C 178.15 149.71 178.51 164.00 178.28 178.28 C 171.09 178.39 163.90 178.38 156.71 178.29 C 156.49 157.21 156.86 136.12 156.52 115.05 Z" />
<path fill="#ffffff" opacity="1.00" d=" M 0.00 132.42 C 0.77 140.69 1.87 148.97 4.24 156.95 C 14.12 195.55 43.89 228.32 81.29 241.99 C 92.88 246.49 105.19 248.98 117.57 250.00 L 0.00 250.00 L 0.00 132.42 Z" />
<path fill="#ffffff" opacity="1.00" d=" M 237.45 179.57 C 244.46 164.79 248.77 148.75 250.00 132.43 L 250.00 250.00 L 132.42 250.00 C 153.26 248.35 173.89 242.02 191.53 230.67 C 211.24 218.39 227.15 200.33 237.45 179.57 Z" />
<path fill="#ffffff" opacity="1.00" d=" M 50.60 135.61 C 57.81 135.56 65.03 135.37 72.24 135.72 C 72.12 149.83 72.50 163.97 72.06 178.06 C 64.97 178.77 57.78 178.16 50.65 178.33 C 50.45 164.09 50.53 149.84 50.60 135.61 Z" />
<path fill="#ffffff" opacity="1.00" d=" M 114.90 135.44 C 121.74 135.67 128.60 135.45 135.45 135.58 C 135.71 149.66 135.46 163.76 135.57 177.84 C 130.09 178.79 124.51 178.19 118.99 178.36 C 117.50 178.18 115.32 178.77 114.53 177.06 C 114.31 167.05 114.53 157.02 114.45 147.00 C 114.50 143.14 114.15 139.25 114.90 135.44 Z" />
</g>
<g id="#003affff">
<path fill="#003aff" opacity="1.00" d=" M 117.58 0.00 L 132.43 0.00 C 148.50 1.22 164.31 5.38 178.90 12.23 C 200.00 22.47 218.26 38.56 230.70 58.47 C 242.01 76.12 248.36 96.74 250.00 117.58 L 250.00 132.43 C 248.77 148.75 244.46 164.79 237.45 179.57 C 227.15 200.33 211.24 218.39 191.53 230.67 C 173.89 242.02 153.26 248.35 132.42 250.00 L 117.57 250.00 C 105.19 248.98 92.88 246.49 81.29 241.99 C 43.89 228.32 14.12 195.55 4.24 156.95 C 1.87 148.97 0.77 140.69 0.00 132.42 L 0.00 117.57 C 1.64 96.73 7.99 76.12 19.30 58.47 C 32.57 37.31 52.34 20.30 75.26 10.37 C 88.67 4.61 103.02 1.11 117.58 0.00 M 113.74 72.38 C 113.92 86.15 113.96 99.92 113.72 113.68 C 117.31 115.10 121.25 114.25 125.00 114.46 C 128.75 114.25 132.69 115.11 136.28 113.68 C 136.06 106.92 136.08 100.15 136.24 93.38 C 157.28 93.28 178.31 93.40 199.35 93.33 C 199.52 86.11 199.52 78.89 199.35 71.67 C 172.23 71.61 145.10 71.70 117.98 71.63 C 116.52 71.57 115.13 71.99 113.74 72.38 M 50.49 72.30 C 50.66 86.33 50.43 100.36 50.61 114.39 C 57.82 114.44 65.04 114.63 72.24 114.28 C 72.32 100.34 72.10 86.40 72.35 72.46 C 69.62 71.72 66.81 71.54 64.00 71.63 C 59.49 71.76 54.92 71.25 50.49 72.30 M 78.32 125.00 C 83.04 130.16 88.13 134.98 93.06 139.94 C 97.20 136.12 101.03 131.98 105.11 128.09 C 105.97 127.09 107.20 126.29 107.63 125.00 C 107.20 123.71 105.97 122.90 105.11 121.90 C 101.03 118.02 97.20 113.88 93.06 110.05 C 88.13 115.02 83.04 119.83 78.32 125.00 M 156.52 115.05 C 156.86 136.12 156.49 157.21 156.71 178.29 C 163.90 178.38 171.09 178.39 178.28 178.28 C 178.51 164.00 178.15 149.71 178.46 135.43 C 185.21 135.64 191.97 135.55 198.73 135.51 C 198.94 128.50 198.94 121.49 198.72 114.49 C 186.48 114.39 174.23 114.52 161.99 114.42 C 160.14 114.37 158.30 114.56 156.52 115.05 M 50.60 135.61 C 50.53 149.84 50.45 164.09 50.65 178.33 C 57.78 178.16 64.97 178.77 72.06 178.06 C 72.50 163.97 72.12 149.83 72.24 135.72 C 65.03 135.37 57.81 135.56 50.60 135.61 M 114.90 135.44 C 114.15 139.25 114.50 143.14 114.45 147.00 C 114.53 157.02 114.31 167.05 114.53 177.06 C 115.32 178.77 117.50 178.18 118.99 178.36 C 124.51 178.19 130.09 178.79 135.57 177.84 C 135.46 163.76 135.71 149.66 135.45 135.58 C 128.60 135.45 121.74 135.67 114.90 135.44 Z" />
</g>
<g id="#c3ff51ff">
<path fill="#c3ff51" opacity="1.00" d=" M 78.32 125.00 C 83.04 119.83 88.13 115.02 93.06 110.05 C 97.20 113.88 101.03 118.02 105.11 121.90 C 105.97 122.90 107.20 123.71 107.63 125.00 C 107.20 126.29 105.97 127.09 105.11 128.09 C 101.03 131.98 97.20 136.12 93.06 139.94 C 88.13 134.98 83.04 130.16 78.32 125.00 Z" />
</g>
</svg>

<?xml version="1.0" encoding="utf-8"?>
<!-- Generator: Adobe Illustrator 26.0.3, SVG Export Plug-In . SVG Version: 6.00 Build 0)  -->
<svg version="1.1" id="Layer_1" xmlns="http://www.w3.org/2000/svg" xmlns:xlink="http://www.w3.org/1999/xlink" x="0px" y="0px"
	 viewBox="0 0 250 250" style="enable-background:new 0 0 250 250;" xml:space="preserve">
<style type="text/css">
	.st0{fill:#FFFFFF;}
	.st1{fill:#003AFF;}
	.st2{fill:#C3FF51;}
</style>
<g id="_x23_ffffffff">
	<path class="st0" d="M113.7,72.4c1.4-0.4,2.8-0.8,4.2-0.8c27.1,0.1,54.2,0,81.4,0c0.2,7.2,0.2,14.4,0,21.7c-21,0.1-42.1-0.1-63.1,0
		c-0.2,6.8-0.2,13.5,0,20.3c-3.6,1.4-7.5,0.6-11.3,0.8c-3.8-0.2-7.7,0.6-11.3-0.8C114,99.9,113.9,86.2,113.7,72.4z"/>
	<path class="st0" d="M50.5,72.3c4.4-1.1,9-0.5,13.5-0.7c2.8-0.1,5.6,0.1,8.3,0.8c-0.2,13.9,0,27.9-0.1,41.8
		c-7.2,0.3-14.4,0.2-21.6,0.1C50.4,100.4,50.7,86.3,50.5,72.3z"/>
	<path class="st0" d="M156.5,115.1c1.8-0.5,3.6-0.7,5.5-0.6c12.2,0.1,24.5,0,36.7,0.1c0.2,7,0.2,14,0,21c-6.8,0-13.5,0.1-20.3-0.1
		c-0.3,14.3,0,28.6-0.2,42.9c-7.2,0.1-14.4,0.1-21.6,0C156.5,157.2,156.9,136.1,156.5,115.1z"/>
	<path class="st0" d="M50.6,135.6c7.2-0.1,14.4-0.2,21.6,0.1c-0.1,14.1,0.3,28.2-0.2,42.3c-7.1,0.7-14.3,0.1-21.4,0.3
		C50.5,164.1,50.5,149.8,50.6,135.6z"/>
	<path class="st0" d="M114.9,135.4c6.8,0.2,13.7,0,20.5,0.1c0.3,14.1,0,28.2,0.1,42.3c-5.5,0.9-11.1,0.4-16.6,0.5
		c-1.5-0.2-3.7,0.4-4.5-1.3c-0.2-10,0-20-0.1-30.1C114.5,143.1,114.2,139.2,114.9,135.4z"/>
</g>
<g id="_x23_003affff">
	<path class="st1" d="M117.6,0h14.8c16.1,1.2,31.9,5.4,46.5,12.2c21.1,10.2,39.4,26.3,51.8,46.2c11.3,17.7,17.7,38.3,19.3,59.1v14.8
		c-1.2,16.3-5.5,32.4-12.6,47.1c-10.3,20.8-26.2,38.8-45.9,51.1c-17.6,11.4-38.3,17.7-59.1,19.3h-14.8c-12.4-1-24.7-3.5-36.3-8
		c-37.4-13.7-67.2-46.4-77.1-85c-2.4-8-3.5-16.3-4.2-24.5v-14.8c1.6-20.8,8-41.4,19.3-59.1c13.3-21.2,33-38.2,56-48.1
		C88.7,4.6,103,1.1,117.6,0 M113.7,72.4c0.2,13.8,0.2,27.5,0,41.3c3.6,1.4,7.5,0.6,11.3,0.8c3.8-0.2,7.7,0.7,11.3-0.8
		c-0.2-6.8-0.2-13.5,0-20.3c21-0.1,42.1,0,63.1,0c0.2-7.2,0.2-14.4,0-21.7c-27.1-0.1-54.2,0-81.4,0C116.5,71.6,115.1,72,113.7,72.4
		 M50.5,72.3c0.2,14-0.1,28.1,0.1,42.1c7.2,0.1,14.4,0.2,21.6-0.1c0.1-13.9-0.1-27.9,0.1-41.8c-2.7-0.7-5.5-0.9-8.3-0.8
		C59.5,71.8,54.9,71.2,50.5,72.3 M78.3,125c4.7,5.2,9.8,10,14.7,14.9c4.1-3.8,8-8,12.1-11.9c0.9-1,2.1-1.8,2.5-3.1
		c-0.4-1.3-1.7-2.1-2.5-3.1c-4.1-3.9-7.9-8-12.1-11.8C88.1,115,83,119.8,78.3,125 M156.5,115.1c0.3,21.1,0,42.2,0.2,63.2
		c7.2,0.1,14.4,0.1,21.6,0c0.2-14.3-0.1-28.6,0.2-42.9c6.8,0.2,13.5,0.1,20.3,0.1c0.2-7,0.2-14,0-21c-12.2-0.1-24.5,0-36.7-0.1
		C160.1,114.4,158.3,114.6,156.5,115.1 M50.6,135.6c-0.1,14.2-0.1,28.5,0.1,42.7c7.1-0.2,14.3,0.4,21.4-0.3
		c0.4-14.1,0.1-28.2,0.2-42.3C65,135.4,57.8,135.6,50.6,135.6 M114.9,135.4c-0.8,3.8-0.4,7.7-0.5,11.6c0.1,10-0.1,20.1,0.1,30.1
		c0.8,1.7,3,1.1,4.5,1.3c5.5-0.2,11.1,0.4,16.6-0.5c-0.1-14.1,0.1-28.2-0.1-42.3C128.6,135.4,121.7,135.7,114.9,135.4z"/>
</g>
<g id="_x23_c3ff51ff">
	<path class="st2" d="M78.3,125c4.7-5.2,9.8-10,14.7-14.9c4.1,3.8,8,8,12.1,11.8c0.9,1,2.1,1.8,2.5,3.1c-0.4,1.3-1.7,2.1-2.5,3.1
		c-4.1,3.9-7.9,8-12.1,11.9C88.1,135,83,130.2,78.3,125z"/>
</g>
</svg>
